img/variants/like-icon.svg

<svg width="21" height="21" viewBox="0 0 21 21" fill="none" xmlns="http://www.w3.org/2000/svg">
<path d="M19.3341 1.8284C18.247 0.649361 16.7554 0 15.1336 0C13.9214 0 12.8113 0.38324 11.834 1.13898C11.3408 1.52046 10.894 1.98717 10.5 2.53191C10.1062 1.98734 9.65918 1.52046 9.16587 1.13898C8.18871 0.38324 7.07856 0 5.86636 0C4.24464 0 2.75285 0.649361 1.66578 1.8284C0.591682 2.99366 0 4.58558 0 6.31112C0 8.08713 0.661858 9.71285 2.08282 11.4275C3.35399 12.9613 5.18095 14.5182 7.29662 16.3212C8.01904 16.9369 8.83791 17.6348 9.68818 18.3782C9.9128 18.575 10.201 18.6833 10.5 18.6833C10.7988 18.6833 11.0872 18.575 11.3115 18.3785C12.1618 17.635 12.9811 16.9367 13.7039 16.3207C15.8192 14.5181 17.6462 12.9613 18.9173 11.4273C20.3383 9.71285 21 8.08713 21 6.31096C21 4.58558 20.4083 2.99366 19.3341 1.8284Z" fill="#EFEFEF"/>
</svg>

<svg width="21" height="21" fill="none" xmlns="http://www.w3.org/2000/svg"><path d="M19.334 1.828A5.647 5.647 0 0015.134 0a5.283 5.283 0 00-3.3 1.139A6.75 6.75 0 0010.5 2.532a6.747 6.747 0 00-1.334-1.393A5.282 5.282 0 005.866 0a5.65 5.65 0 00-4.2 1.828C.592 2.994 0 4.586 0 6.311c0 1.776.662 3.402 2.083 5.117 1.271 1.533 3.098 3.09 5.214 4.893.722.616 1.54 1.314 2.391 2.057a1.231 1.231 0 001.623 0c.85-.743 1.67-1.441 2.393-2.057 2.115-1.803 3.942-3.36 5.213-4.894C20.338 9.713 21 8.087 21 6.311c0-1.725-.592-3.317-1.666-4.483z" fill="#EFEFEF"/></svg>
